X:44
T:Reprinse le pinge
C:Tielman Susato
B:Tielman Susato: "Danserye" (1551) no. 44
R:Pavane
Z:Transcribed by Frank Nordberg - http://www.musicaviva.com
F:http://abc.musicaviva.com/tunes/susato-tielman/susato-1551-44/susato-1551-44-4m.abc
M:4/2
L:1/2
K:Ddor
V:1
F2|E2CE|D3D|^C3^C|^C2::CD|E3E|
ECDE|F2FF|F2E2|DFED|^CD2^C|D3D|D2:|
V:2
C2|C2CC|A,2A,A,|A,3A,|A,2::A,B,|C2CC|
CG,DG,|C2CC|C2C2|A,CCA,-|A,G,A,2|F,3F,|F,2:|
V:3
A,2|G,2E,G,|F,2D,F,|E,3E,|E,2::E,F,|G,3G,|
G,E,F,G,|A,2A,A,|A,2G,2|F,A,G,F,|E,D,E,2|D,3D,|D,2:|
V:4
F,,2|C,2C,C,|D,2D,D,|A,,3A,,|A,,2::A,,D,|C,3C,|
C,E,D,C,|F,,2F,,F,,|F,,2C,2|D,A,,C,D,|A,,_B,,A,,2|D,3D,|D,2:|
W:
W:
W:  From Musica Viva - http://www.musicaviva.com
W:  the Internet center for free sheet music downloads.

